X: 34588
T: Risipiti
R: reel
M: 4/4
K: Ddorian
DEFG A2A2|FDFD ^G4|A4 FDFD|^G4 A4|
DEFG A2A2|FDFD ^G4|A4 FGAF|1 ((3EFE)^CE D2 z2:|2 ((3EFE)^CE D2zc||
ABcA dAcd|cdBc ^G>D|A2A2 FDFD|^G4 A3"slide"A-|
d4 d3A|dcBc ^G4|A_BAG FGAF|((3EFE)^CE DEFG:|

